assets/icons/uEA01-bulb.svg

<?xml version="1.0"?>
<svg version="1.1" xmlns="http://www.w3.org/2000/svg" xmlns:xlink="http://www.w3.org/1999/xlink" width="47.98" height="47.98">
    <desc iVinci="yes" version="4.6" gridStep="20" showGrid="no" snapToGrid="no" codePlatform="0"/>
    <g id="Layer1" name="Layer 1" opacity="1">
        <g id="Shape1">
            <desc shapeID="1" type="0" basicInfo-basicType="0" basicInfo-roundedRectRadius="12" basicInfo-polygonSides="6" basicInfo-starPoints="5" bounding="rect(-7.66287,-19.0965,15.3257,38.193)" text="" font-familyName="" font-pixelSize="20" font-bold="0" font-underline="0" font-alignment="1" strokeStyle="0" markerStart="0" markerEnd="0" shadowEnabled="0" shadowOffsetX="0" shadowOffsetY="2" shadowBlur="4" shadowOpacity="160" blurEnabled="0" blurRadius="4" transform="matrix(0.970761,0,0,0.979575,17.0751,18.7065)" pers-center="0,0" pers-size="0,0" pers-start="0,0" pers-end="0,0" locked="0" mesh="" flag=""/>
            <path id="shapePath1" d="M19.3417,37.4129 C19.0757,37.4129 18.8097,37.3042 18.6185,37.0877 C16.4109,34.5966 16.2314,29.2775 16.2246,29.0532 C16.2246,27.049 14.9781,24.9713 13.5346,22.5645 C11.295,18.8313 8.75649,14.5996 9.935,9.09045 C11.7367,0.655334 20.8066,-1.90735e-06 23.5431,-1.90735e-06 C24.08,-1.90735e-06 24.5139,0.438847 24.5139,0.979572 C24.5139,1.5203 24.079,1.95915 23.5431,1.95915 C20.5066,1.95915 13.288,2.69383 11.8328,9.50383 C10.8174,14.2518 13.0434,17.9625 15.1956,21.5497 C16.7235,24.0975 18.1671,26.5024 18.1671,29.0248 C18.2069,30.3325 18.6272,34.1578 20.0659,35.7809 C20.4231,36.1845 20.3891,36.8046 19.9901,37.1641 C19.8038,37.3306 19.5717,37.4129 19.3417,37.4129 Z" style="stroke:none;fill-rule:nonzero;fill:#000000;fill-opacity:1;"/>
        </g>
        <g id="Shape2">
            <desc shapeID="2" type="0" basicInfo-basicType="0" basicInfo-roundedRectRadius="12" basicInfo-polygonSides="6" basicInfo-starPoints="5" bounding="rect(-7.66319,-19.0965,15.3264,38.193)" text="" font-familyName="" font-pixelSize="20" font-bold="0" font-underline="0" font-alignment="1" strokeStyle="0" markerStart="0" markerEnd="0" shadowEnabled="0" shadowOffsetX="0" shadowOffsetY="2" shadowBlur="4" shadowOpacity="160" blurEnabled="0" blurRadius="4" transform="matrix(0.970761,0,0,0.979575,30.0649,18.7065)" pers-center="0,0" pers-size="0,0" pers-start="0,0" pers-end="0,0" locked="0" mesh="" flag=""/>
            <path id="shapePath2" d="M27.7999,37.4129 C27.5698,37.4129 27.3369,37.3306 27.1534,37.1641 C26.7534,36.8046 26.7195,36.1845 27.0767,35.7809 C28.5193,34.1529 28.9367,30.3316 28.9745,28.9964 C28.9745,26.5014 30.4161,24.0966 31.946,21.5487 C34.1002,17.9605 36.3261,14.2499 35.3097,9.50285 C33.8516,2.69383 26.634,1.95915 23.5965,1.95915 C23.0597,1.95915 22.6258,1.5203 22.6258,0.979572 C22.6258,0.438847 23.0597,-1.90735e-06 23.5965,-1.90735e-06 C26.3341,-1.90735e-06 35.4039,0.655334 37.2056,9.09045 C38.3832,14.5996 35.8456,18.8313 33.6051,22.5645 C32.1625,24.9713 30.9151,27.049 30.9151,29.0248 C30.9083,29.2785 30.7297,34.5966 28.5222,37.0877 C28.3319,37.3042 28.0649,37.4129 27.7999,37.4129 Z" style="stroke:none;fill-rule:nonzero;fill:#000000;fill-opacity:1;"/>
        </g>
        <g id="Shape3">
            <desc shapeID="3" type="0" basicInfo-basicType="0" basicInfo-roundedRectRadius="12" basicInfo-polygonSides="6" basicInfo-starPoints="5" bounding="rect(-6.8556,-12.9236,13.7112,25.8472)" text="" font-familyName="" font-pixelSize="20" font-bold="0" font-underline="0" font-alignment="1" strokeStyle="0" markerStart="0" markerEnd="0" shadowEnabled="0" shadowOffsetX="0" shadowOffsetY="2" shadowBlur="4" shadowOpacity="160" blurEnabled="0" blurRadius="4" transform="matrix(0.970761,0,0,0.979575,23.4507,24.1175)" pers-center="0,0" pers-size="0,0" pers-start="0,0" pers-end="0,0" locked="0" mesh="" flag=""/>
            <path id="shapePath3" d="M23.6625,36.7772 C23.2606,36.7772 22.9345,36.448 22.9345,36.0425 C22.9345,35.5449 22.9607,34.7827 22.9946,33.8345 C23.0898,31.1495 23.2665,26.1556 22.8636,21.8406 C20.8891,22.2873 19.5455,21.5046 18.8136,20.8512 C16.7857,19.042 16.3226,15.6536 17.2604,13.8326 C17.8341,12.7208 18.8602,12.2535 20.0717,12.5454 C21.6618,12.9314 22.7209,14.4174 23.4092,16.643 C24.345,13.2213 25.9419,11.7098 27.3747,11.4875 C28.4746,11.3151 29.4609,11.9058 29.8861,12.9882 C30.5472,14.6672 29.8657,17.6353 25.7739,20.4751 C25.2488,20.8395 24.7508,21.1255 24.2819,21.3459 C24.6508,24.9723 24.6119,29.3696 24.4518,33.8884 C24.4188,34.8141 24.3916,35.5586 24.3916,36.0444 C24.3916,36.448 24.0644,36.7772 23.6625,36.7772 M19.3931,13.9286 C19.0233,13.9286 18.7573,14.1157 18.5544,14.5104 C17.8943,15.7888 18.3311,18.4571 19.7795,19.7502 C20.5716,20.4584 21.5618,20.6612 22.7005,20.3663 C22.2588,17.0338 21.3861,14.3743 19.7339,13.9736 C19.6106,13.9442 19.497,13.9286 19.3931,13.9286 M27.7514,12.9265 C27.7019,12.9265 27.6504,12.9304 27.598,12.9392 C26.6874,13.0803 24.941,14.6975 24.3013,19.6787 C24.5149,19.5553 24.7294,19.4162 24.9498,19.2633 C28.1009,17.0769 29.0163,14.7573 28.5338,13.5289 C28.4416,13.2938 28.2212,12.9265 27.7514,12.9265 Z" style="stroke:none;fill-rule:nonzero;fill:#000000;fill-opacity:1;"/>
        </g>
        <g id="Shape4">
            <desc shapeID="4" type="0" basicInfo-basicType="0" basicInfo-roundedRectRadius="12" basicInfo-polygonSides="6" basicInfo-starPoints="5" bounding="rect(-6.748,-2.414,13.496,4.828)" text="" font-familyName="" font-pixelSize="20" font-bold="0" font-underline="0" font-alignment="1" strokeStyle="0" markerStart="0" markerEnd="0" shadowEnabled="0" shadowOffsetX="0" shadowOffsetY="2" shadowBlur="4" shadowOpacity="160" blurEnabled="0" blurRadius="4" transform="matrix(0.970761,0,0,0.979575,23.5645,38.3788)" pers-center="0,0" pers-size="0,0" pers-start="0,0" pers-end="0,0" locked="0" mesh="" flag=""/>
            <path id="shapePath4" d="M28.2338,40.7435 L18.8942,40.7435 C17.8584,40.7435 17.0138,39.8344 17.0138,38.7187 L17.0138,38.0398 C17.0138,36.9221 17.8574,36.0141 18.8942,36.0141 L28.2338,36.0141 C29.2696,36.0141 30.1152,36.9231 30.1152,38.0398 L30.1152,38.7187 C30.1142,39.8344 29.2706,40.7435 28.2338,40.7435 M18.8942,37.4825 C18.6651,37.4825 18.4699,37.7371 18.4699,38.0379 L18.4699,38.7157 C18.4699,39.0184 18.6641,39.2721 18.8942,39.2721 L28.2338,39.2721 C28.4629,39.2721 28.659,39.0175 28.659,38.7157 L28.659,38.0379 C28.659,37.7362 28.4649,37.4825 28.2338,37.4825 L18.8942,37.4825 Z" style="stroke:none;fill-rule:nonzero;fill:#000000;fill-opacity:1;"/>
        </g>
        <g id="Shape5">
            <desc shapeID="5" type="0" basicInfo-basicType="0" basicInfo-roundedRectRadius="12" basicInfo-polygonSides="6" basicInfo-starPoints="5" bounding="rect(-6.748,-2.4145,13.496,4.829)" text="" font-familyName="" font-pixelSize="20" font-bold="0" font-underline="0" font-alignment="1" strokeStyle="0" markerStart="0" markerEnd="0" shadowEnabled="0" shadowOffsetX="0" shadowOffsetY="2" shadowBlur="4" shadowOpacity="160" blurEnabled="0" blurRadius="4" transform="matrix(0.970761,0,0,0.979575,23.5645,41.6422)" pers-center="0,0" pers-size="0,0" pers-start="0,0" pers-end="0,0" locked="0" mesh="" flag=""/>
            <path id="shapePath5" d="M28.2338,44.0074 L18.8942,44.0074 C17.8584,44.0074 17.0138,43.0984 17.0138,41.9826 L17.0138,41.3038 C17.0138,40.1861 17.8574,39.277 18.8942,39.277 L28.2338,39.277 C29.2696,39.277 30.1152,40.1871 30.1152,41.3038 L30.1152,41.9826 C30.1142,43.0984 29.2706,44.0074 28.2338,44.0074 M18.8942,40.7444 C18.6651,40.7444 18.4699,41.0011 18.4699,41.3018 L18.4699,41.9797 C18.4699,42.2824 18.6641,42.5361 18.8942,42.5361 L28.2338,42.5361 C28.4629,42.5361 28.659,42.2814 28.659,41.9797 L28.659,41.3018 C28.659,40.9981 28.4649,40.7444 28.2338,40.7444 L18.8942,40.7444 Z" style="stroke:none;fill-rule:nonzero;fill:#000000;fill-opacity:1;"/>
        </g>
        <g id="Shape6">
            <desc shapeID="6" type="0" basicInfo-basicType="0" basicInfo-roundedRectRadius="12" basicInfo-polygonSides="6" basicInfo-starPoints="5" bounding="rect(-4.169,-1.5275,8.338,3.05501)" text="" font-familyName="" font-pixelSize="20" font-bold="0" font-underline="0" font-alignment="1" strokeStyle="0" markerStart="0" markerEnd="0" shadowEnabled="0" shadowOffsetX="0" shadowOffsetY="2" shadowBlur="4" shadowOpacity="160" blurEnabled="0" blurRadius="4" transform="matrix(0.970761,0,0,0.979575,23.5635,45.5037)" pers-center="0,0" pers-size="0,0" pers-start="0,0" pers-end="0,0" locked="0" mesh="" flag=""/>
            <path id="shapePath6" d="M23.5635,47 C21.3317,47 19.5164,45.9528 19.5164,44.0074 L20.9726,44.0074 C20.9726,45.1418 22.1346,45.5307 23.5635,45.5307 C24.9925,45.5307 26.1545,45.1427 26.1545,44.0074 L27.6106,44.0074 C27.6106,45.9538 25.7953,47 23.5635,47 Z" style="stroke:none;fill-rule:evenodd;fill:#000000;fill-opacity:1;"/>
        </g>
    </g>
</svg>

<svg xmlns="http://www.w3.org/2000/svg" width="47.98" height="47.98"><path d="M19.342 37.413c-.266 0-.532-.11-.723-.325-2.21-2.49-2.39-7.81-2.4-8.035 0-2.004-1.25-4.082-2.69-6.49C11.29 18.83 8.75 14.6 9.93 9.09 11.738.655 20.808 0 23.543 0c.538 0 .97.44.97.98s-.433.98-.97.98c-3.035 0-10.254.734-11.71 7.544-1.015 4.748 1.21 8.458 3.364 12.046 1.528 2.547 2.97 4.952 2.97 7.475.04 1.308.46 5.133 1.9 6.756.357.41.323 1.03-.076 1.39-.18.17-.41.25-.64.25z"/><path d="M27.8 37.413c-.23 0-.463-.082-.647-.25-.4-.358-.433-.978-.076-1.382 1.442-1.62 1.86-5.44 1.897-6.78 0-2.49 1.442-4.9 2.972-7.44 2.154-3.59 4.38-7.3 3.364-12.04-1.458-6.81-8.676-7.544-11.714-7.544-.536 0-.97-.44-.97-.98s.434-.98.97-.98c2.738 0 11.808.654 13.61 9.09 1.177 5.51-1.36 9.74-3.6 13.473-1.444 2.406-2.69 4.484-2.69 6.46-.008.254-.186 5.572-2.394 8.063-.19.216-.457.325-.722.325z"/><path d="M23.663 36.777c-.402 0-.73-.33-.73-.735.002-.497.028-1.26.062-2.208.095-2.685.27-7.678-.13-11.993-1.976.45-3.32-.33-4.05-.99-2.03-1.8-2.492-5.19-1.555-7.01.574-1.11 1.6-1.58 2.812-1.29 1.59.39 2.65 1.87 3.337 4.1.93-3.42 2.53-4.93 3.96-5.15 1.1-.17 2.08.42 2.51 1.5.66 1.68-.02 4.65-4.11 7.49-.53.364-1.03.65-1.5.87.37 3.627.33 8.025.17 12.54-.038.927-.06 1.67-.06 2.157 0 .404-.33.733-.73.733m-4.26-22.86c-.37 0-.635.186-.838.58-.66 1.28-.223 3.947 1.226 5.24.79.708 1.78.91 2.92.616-.44-3.332-1.32-5.992-2.97-6.392-.13-.03-.24-.045-.34-.045m8.35-1.01c-.05 0-.1 0-.158.01-.91.14-2.657 1.76-3.297 6.74.216-.13.43-.27.65-.42 3.15-2.19 4.067-4.51 3.585-5.74-.09-.235-.313-.602-.783-.602z"/><path d="M28.234 40.743h-9.34c-1.036 0-1.88-.91-1.88-2.024v-.68c0-1.12.843-2.03 1.88-2.03h9.34c1.036 0 1.88.91 1.88 2.02v.68c0 1.11-.843 2.02-1.88 2.02m-9.34-3.26c-.23 0-.424.25-.424.55v.68c0 .3.194.553.424.553h9.34c.23 0 .425-.255.425-.556v-.68c0-.3-.2-.555-.43-.555h-9.34z"/><path d="M28.234 44.007h-9.34c-1.036 0-1.88-.91-1.88-2.024v-.68c0-1.117.843-2.026 1.88-2.026h9.34c1.036 0 1.88.91 1.88 2.027v.68c0 1.114-.843 2.023-1.88 2.023m-9.34-3.263c-.23 0-.424.257-.424.558v.678c0 .302.194.556.424.556h9.34c.23 0 .425-.255.425-.556v-.678c0-.304-.2-.558-.43-.558h-9.34z"/><path d="M23.564 47c-2.232 0-4.048-1.047-4.048-2.993h1.457c0 1.135 1.162 1.524 2.59 1.524 1.43 0 2.59-.38 2.59-1.52h1.458c0 1.95-1.81 3-4.04 3z" fill-rule="evenodd"/></svg>
